web/workspace/public/assets/icons/grid.svg

<svg height="30" viewBox="0 0 30 30" width="30" xmlns="http://www.w3.org/2000/svg"><path d="m2 14h12v-12h-12zm2-10h8v8h-8zm12-2v12h12v-12zm10 10h-8v-8h8zm-24 16h12v-12h-12zm2-10h8v8h-8zm12 10h12v-12h-12zm2-10h8v8h-8z"/></svg>

<svg xmlns="http://www.w3.org/2000/svg" width="30" height="30" viewBox="0 0 30 30"><path d="M2 14h12V2H2v12zM4 4h8v8H4V4zm12-2v12h12V2H16zm10 10h-8V4h8v8zM2 28h12V16H2v12zm2-10h8v8H4v-8zm12 10h12V16H16v12zm2-10h8v8h-8v-8z"/></svg>
